X: 21413
Q: "Slow."
M: C
L: 1/8
K: Bb
[|\
(Bc) |\
d3 e f2 d2 | g3 f (fd) zf | e3 d c2 B2 | {A2}G4 z2 (Bc) |\
d3 c B2 (FB) | {A}G3 F D2 z2 | F2 (FD) F2 (GA) | {c2}B4 z2 |]


